X: 3
T: Brian Boru's March (A minor)
R: jig
M: 6/8
L: 1/8
K: Amin
e2|:"Am"cBA A2e|"Am"cBA A2e|"G"BAG G2 d|"G"BAG G2 e|
"Am"cBA A2e|"Am"cBA A2e|"F"Acd e2d|[1"G"cBA A2e:|["G"cBA A3:]
|:"C"Acd {ef}e2 d|"C"{ef}e2 d ecA|"G"GBc d2e|"G"d2e dBG|
"Am"Acd {ef}e2 d|"Am"{ef}e2 d ecA|"F"Acd e2 d|"G"cBA A3:|
|:"Am" cBA a2 a|"Am" cBA a2 a|"G"BAG g2 g|"G"BAG g2 g|
"Am" cBA a2 a|"Am" cBA a3|"F"Acd e2 d|"G"cBA A3:|